X: 7
T: The Musical Priest
R: reel
M: 4/4
L: 1/8
K: Bmin
FB BF B2 Bd|cBAf ecBA|FB BF B2 Bd|1cBAc B2 B2:|2cBAc B2 Bc|
|:d2 dc df ed|cA ec fc ec|dcBc defb|afec B2 Bc:|
|:dBBB bafb|afec AB B2|dBBB bafb|afec B2 Bc:|
|:dBBB bBBB|cBAB cdec|dBBB bBBB|cBAc B2 Bc:|
|:dBBB [FB]2 (3[FB][FB][FB]|[GB]2 (3[GB][GB][GB] [FB]2 (3[FB][FB][FB]|[Fd]2 (3[FB][FB][FB] B2 BB|1cB Ac B2 Bc:|2cB Ac [FB]4||


Tune 73	Setting 23905

